X: 29
T: Adyeu quitte le demeurant
N: Derived from Duf3018-Adyeu_quitte_le_demeurant.krn
C: Guillaume Du Fay
%%abc-version 2.0
%%abcx-abcm2ps-target-version 5.9.1 (29 Sep 2008)
%%abc-creator hum2abc beta
%%abcx-conversion-date 2019/02/16 20:31:47
%%abc-edited-by Jesse Rodin
%%abc-edited-by Planchart
%%abcx-initial-encoding-date 2016/04/15/
%%humdrum-veritas 2176105500
%%humdrum-veritas-data 1548533013
%%linebreak <none>
%%barnumbers 0
L: 1/4
M: 3/1
Q: 1/2=120
V: 1 clef=treble
V: 2 clef=treble-8
V: 3 clef=treble-8
K: C
[V:1] E6F2G4 | 
[V:2] B4c6B2 | 
[V:3] E8E4 | 
[V:1] A4B6A2 | 
[V:2] d8d4 | 
[V:3] D4G8 | 
[V:1] c8B4 | 
[V:2] c2d2e4E4 | 
[V:3] A8G4 | 
[V:1] c4A6G2 | 
[V:2] z2e8d2 | 
[V:3] A6c4B2 | 
[V:1] c4B8 | 
[V:2] e2f2g6f2 | 
[V:3] A4G8 | 
[V:1] z12 | 
[V:2] d4c4d4 | 
[V:3] G4A4B4 | 
[V:1] G4A4B4 | 
[V:2] e6c2d4 | 
[V:3] c6A2G4 | 
[V:1] c6BA^G3^F | 
[V:2] z4A2D2E4 | 
[V:3] A3Bc2d2B4 | 
[V:1] A4A3GF2E2 | 
[V:2] F4D4z2A2 | 
[V:3] A4d6c2 | 
[V:1] F4G2E3DC2- | 
[V:2] c3dB4c2A2- | 
[V:3] A4G4A4 | 
[V:1] CDE2F2D4^C2 | 
[V:2] A2B3AA2G3F | 
[V:3] F2G2D4E4 | 
[V:1] D8z4 | 
[V:2] A4z4A4- | 
[V:3] D12 | 
[V:1] A4G2E2F4- | 
[V:2] A4B2c2d4 | 
[V:3] z12 | 
[V:1] F2E4C2D3C | 
[V:2] c4B2G2A4 | 
[V:3] A4G2E2F4 | 
[V:1] E4G4A4 | 
[V:2] B2c3dcBd4- | 
[V:3] E8D4 | 
[V:1] B2cBAGG2E2^F2 | 
[V:2] d2e2d2B2c4 | 
[V:3] G2E2F2G2A4 | 
[V:1] G4z4c4 | 
[V:2] d8c4 | 
[V:3] G8A4 | 
[V:1] B4A8 | 
[V:2] d2e2f4e4 | 
[V:3] z4z4c4 | 
[V:1] G4A3GE4- | 
[V:2] d4e4c4 | 
[V:3] B4A8 | 
[V:1] E2D2F2EDC4 | 
[V:2] B4c2BAG4 | 
[V:3] G4A2G2E4- | 
[V:1] G2F3EE4D2 | 
[V:2] z2d2c2B2A3G | 
[V:3] E2D2E2G2F4 | 
[V:1] E12 |]  
[V:2] B12 |]  
[V:3] E12 |]  



